X: 244
T: Guafu sifu
L: 1/8
M: 2/4
K: F
d2e d [I:setbarnb 1]| 
c2A G | 
d2e d | 
c2A G | 
f3e | 
d e d c | 
A c A d | 
c2z2 | 
d cd2 | 
d e d c | 
d e d c | 
d f c A | 
G3A | 
G2z2 | 
c2A c | 
d f c A | 
G Ac2 | 
A c A G/ A/ | 
F F/ G/ A G | 
F2z2 |]

@@@ Tune index: 9118
